public/svgs/duotone/bell-concierge.svg

<svg xmlns="http://www.w3.org/2000/svg" viewBox="0 0 512 512"><!-- Font Awesome Pro 6.0.0-alpha2 by @fontawesome - https://fontawesome.com License - https://fontawesome.com/license (Commercial License) --><defs><style>.fa-secondary{opacity:.4}</style></defs><path d="M216 112H232V145.324C239.891 144.484 247.887 144 256 144S272.109 144.484 280 145.324V112H296C309.255 112 320 101.255 320 88V88C320 74.745 309.255 64 296 64H216C202.745 64 192 74.745 192 88V88C192 101.255 202.745 112 216 112ZM488 400H24C10.745 400 0 410.745 0 424V424C0 437.255 10.745 448 24 448H488C501.255 448 512 437.255 512 424V424C512 410.745 501.255 400 488 400Z" class="fa-secondary"/><path d="M480 368H32C32 244.289 132.289 144 256 144S480 244.289 480 368Z" class="fa-primary"/></svg>

<svg xmlns="http://www.w3.org/2000/svg" viewBox="0 0 512 512"><!--! Font Awesome Pro 6.5.1 by @fontawesome - https://fontawesome.com License - https://fontawesome.com/license (Commercial License) Copyright 2023 Fonticons, Inc. --><defs><style>.fa-secondary{opacity:.4}</style></defs><path class="fa-secondary" d="M216 64c-13.3 0-24 10.7-24 24s10.7 24 24 24h16v33.3c7.9-.8 15.9-1.3 24-1.3s16.1 .4 24 1.3V112h16c13.3 0 24-10.7 24-24s-10.7-24-24-24H256 216zM480 400H32 24c-13.3 0-24 10.7-24 24s10.7 24 24 24H488c13.3 0 24-10.7 24-24s-10.7-24-24-24h-8z"/><path class="fa-primary" d="M480 368c0-123.7-100.3-224-224-224S32 244.3 32 368v32H480V368z"/></svg>
